cg/format-color.svg

<svg viewBox="0 0 24 24" fill="none" xmlns="http://www.w3.org/2000/svg" height="1em" width="1em">
  <path fill-rule="evenodd" clip-rule="evenodd" d="M12.9479 3.20946C12.7721 2.83236 12.391 2.61645 11.9997 2.63269C11.6086 2.61666 11.2278 2.83255 11.0521 3.20948L5.1354 15.8978C4.90199 16.3983 5.11855 16.9933 5.61909 17.2267C6.11963 17.4601 6.71461 17.2436 6.94801 16.743L8.39869 13.632H15.6013L17.052 16.743C17.2854 17.2435 17.8804 17.4601 18.3809 17.2267C18.8814 16.9933 19.098 16.3983 18.8646 15.8978L12.9479 3.20946ZM14.6687 11.632L12 5.909L9.33131 11.632H14.6687Z" fill="currentColor"/>
  <path d="M6 19.3682C5.44772 19.3682 5 19.816 5 20.3682C5 20.9205 5.44772 21.3682 6 21.3682H18C18.5523 21.3682 19 20.9205 19 20.3682C19 19.816 18.5523 19.3682 18 19.3682H6Z" fill="currentColor"/>
</svg>

<svg viewBox="0 0 24 24" fill="none" xmlns="http://www.w3.org/2000/svg" height="1em" width="1em">
  <path fill-rule="evenodd" clip-rule="evenodd" d="M12.948 3.21A1 1 0 0 0 12 2.632a1 1 0 0 0-.948.576l-5.917 12.69a1 1 0 1 0 1.813.845l1.45-3.111h7.203l1.451 3.111a1 1 0 0 0 1.813-.845L12.948 3.209Zm1.72 8.422L12 5.909l-2.669 5.723h5.338Z" fill="currentColor"/>
  <path d="M6 19.368a1 1 0 0 0 0 2h12a1 1 0 1 0 0-2H6Z" fill="currentColor"/>
</svg>
